!!!SOCIAL_FUNCTION:	songs of principal social dances with corn dance
!!!PDT:	1956
!!!OTL: No_77_Lizard_Dance_Song_(b).krn
!!!LANG: Non-Tone
!!!LING_GROUP: Muskogean
!!!REG: Florida
**kern
*staff1
=1-
*clefF4
*k[b-]
*M2/4
8.c\L
16c\Jk
8.A\L
16c\Jk
=2||
*M3/8
12A\L
12G\
12A\J
16F\
16r
=3||
*M2/4
4D\
8.D/L
16C/Jk
=4||
*M3/8
4F\
8F\
=5!|:
*M2/4
8.F\L
16F\Jk
8.A\L
16c\Jk
=6||
*M3/8
12A\L
12G\
12A\J
16F\
16r
=7||
*M2/4
4D\
8.D/L
16C/Jk
=8||
*M3/8
4F\
8F\
=9||
*M2/4
8.c\L
16c\Jk
8.A\L
16c\Jk
=10||
*M3/8
12A\L
12G\
12A\J
16F\
16r
=11||
*M2/4
4D\
8.D/L
16C/Jk
=12||
*M3/8
4F\
8F\
=13:|!
*M2/4
8.F\L
16F\Jk
8.A\L
16A\Jk
=14||
*M3/8
12A\L
12G\
12A\J
8F\
=15||
*M3/4
4D\
8.D/L
16C/Jk
4F\
=16
4.c\
16A\LL
16A\JJ
8A\L
8G\J
=17||
*M5/8
16F\LL
16F\J
[8F\
8F\J]
8r
8D\
=18||
*M3/8
16F\LL
16F\J
8F\
8G\J
=19
16F\LL
16F\J
8F\
8G\J
=20
16A\LL
16A\J
8A\
8G\J
=21
16F\LL
16F\J
8F\J
8r
=22
4r
8D\
=23
16F\LL
16F\J
8F\
8G\J
=24
16F\LL
16F\J
8F\
8c\J
=25
16A\LL
16A\J
8A\
8G\J
=26
16F\LL
16F\J
8F\J
8r
=27
4r
8D\
=28
16F\LL
16F\J
8F\
8G\J
=29
16F\LL
16F\J
8F\
8G\J
=30
16A\LL
16A\J
8A\
8G\J
=31
16F\LL
16F\J
8F\J
8r
=32
4r
8D\
=33
16F\LL
16F\J
8F\
8G\J
=34
16F\LL
16F\J
8F\J
8r
*-
